png/markup.svg

<?xml version="1.0" encoding="utf-8"?><!-- Uploaded to: SVG Repo, www.svgrepo.com, Generator: SVG Repo Mixer Tools -->
<svg fill="#000000" width="800px" height="800px" viewBox="0 0 256 256" id="Flat" xmlns="http://www.w3.org/2000/svg">
  <path d="M232,56V92H136V48h88A8.00008,8.00008,0,0,1,232,56Zm-48,96h48V108H184Zm-96,0h80V108H88ZM72,108H24v44H72Zm64,100h88a8.00008,8.00008,0,0,0,8-8V168H136ZM120,48H32a8.00008,8.00008,0,0,0-8,8V92h96ZM24,200a8.00008,8.00008,0,0,0,8,8h88V168H24Z"/>
</svg>

<svg xmlns="http://www.w3.org/2000/svg" width="800" height="800" viewBox="0 0 256 256"><path fill="#D14748" d="M232 56v36h-96V48h88a8 8 0 0 1 8 8m-48 96h48v-44h-48Zm-96 0h80v-44H88Zm-16-44H24v44h48Zm64 100h88a8 8 0 0 0 8-8v-32h-96ZM120 48H32a8 8 0 0 0-8 8v36h96ZM24 200a8 8 0 0 0 8 8h88v-40H24Z"/></svg>
